X: 18207
T: Humours Of Glynn, The
R: jig
M: 6/8
K: Bminor
Bdc BFF|Fdc dFF|Bdc BAF|EFA B2A|
Bdc BFA|dfe dAF|GBG FAF|EFA B3|
Add dAd|dfa afd|gfe fdB|AFA B3|
Add dAd|dfa afd|g2e fdB|AFA BdB|
AFF dFF|AFd AFD|AFF dAF|EFA B3|
AFF dFF|AFd AFD|g2e fdB|AFA B2A|
Bbb afd|gfe fdB|Bbb afd|gfe f2B|
Bbb afd|gfe fdB|g2e fdB|AFA B2A|

